desktop.blocks/stage/_type/copywriting.svg

<?xml version="1.0" encoding="utf-8"?>
<!-- Generator: Adobe Illustrator 15.0.0, SVG Export Plug-In  -->
<!DOCTYPE svg PUBLIC "-//W3C//DTD SVG 1.1//EN" "http://www.w3.org/Graphics/SVG/1.1/DTD/svg11.dtd" [
	<!ENTITY ns_flows "http://ns.adobe.com/Flows/1.0/">
]>
<svg version="1.1"
	 xmlns="http://www.w3.org/2000/svg" xmlns:xlink="http://www.w3.org/1999/xlink" xmlns:a="http://ns.adobe.com/AdobeSVGViewerExtensions/3.0/"
	 x="0px" y="0px" width="595px" height="595px" viewBox="-31.3710938 -35.4477539 595 595"
	 enable-background="new -31.3710938 -35.4477539 595 595" xml:space="preserve">
<defs>
</defs>
<g>
	<g>
		<path fill="#E36723" d="M50.4873047,370.3549805l80.0996094,80.0996094l-88.6025391,8.5009766L50.4873047,370.3549805
			 M43.7460938,351.5874023L32.5341797,468.4057617l116.8212891-11.2089844L43.7460938,351.5874023L43.7460938,351.5874023z"/>
	</g>
</g>
<g>
	<g>
		<path fill="#E36723" d="M275.1425781,132.215332l93.5839844,93.5820313L166.2929688,428.2329102l-93.5839844-93.5830078
			L275.1425781,132.215332 M275.1425781,120.1889648L60.6826172,334.6499023l105.6103516,105.609375l214.4599609-214.4619141
			L275.1425781,120.1889648L275.1425781,120.1889648z"/>
	</g>
</g>
<g>
	<path fill="#E36723" d="M395.3310547,12.0263672l93.5830078,93.5830078l-25.65625,25.6567383l-93.5830078-93.5834961
		L395.3310547,12.0263672 M395.3310547,0l-37.6826172,37.6826172l105.609375,105.6098633l37.6826172-37.6831055L395.3310547,0
		L395.3310547,0z"/>
</g>
<g>
	<path fill="#E36723" d="M333.8632813,73.4946289l93.5830078,93.5830078l-22.9082031,22.9082031l-93.5830078-93.5825195
		L333.8632813,73.4946289 M333.8632813,61.4682617l-34.9345703,34.9350586l105.609375,105.6088867l34.9345703-34.9345703
		L333.8632813,61.4682617L333.8632813,61.4682617z"/>
</g>
<g>
	<g>
		<path fill="#E36723" d="M530.3779297,495.1743164l0.0019531,16.6308594H8.5039063v-16.6308594H530.3779297
			 M538.8808594,486.6704102H0v33.6386719h538.8847656L538.8808594,486.6704102L538.8808594,486.6704102z"/>
	</g>
</g>
</svg>

<!DOCTYPE svg PUBLIC "-//W3C//DTD SVG 1.1//EN" "http://www.w3.org/Graphics/SVG/1.1/DTD/svg11.dtd" [
	<!ENTITY ns_flows "http://ns.adobe.com/Flows/1.0/">
]><svg xmlns="http://www.w3.org/2000/svg" width="595" height="595" viewBox="-31.3710938 -35.4477539 595 595" enable-background="new -31.3710938 -35.4477539 595 595"><path fill="#E36723" d="M50.487 370.355l80.1 80.1-88.603 8.5 8.503-88.6m-6.74-18.768l-11.213 116.82 116.82-11.21-105.608-105.61zM275.143 132.215l93.584 93.582-202.434 202.436L72.71 334.65l202.433-202.435m0-12.026L60.683 334.65l105.61 105.61 214.46-214.463-105.61-105.608zM395.33 12.026l93.584 93.583-25.656 25.656-93.583-93.583 25.656-25.657m0-12.026L357.65 37.683l105.61 105.61 37.682-37.684L395.33 0zM333.863 73.495l93.583 93.583-22.908 22.908-93.583-93.583 22.908-22.908m0-12.027L298.93 96.403l105.608 105.61 34.935-34.935-105.61-105.61zM530.378 495.174l.002 16.63H8.504v-16.63h521.874m8.503-8.504H0v33.64h538.885l-.004-33.64z"/></svg>
